packages/react/src/components/base/Icon/assets/icon-detective.svg

<svg width="24" height="24" viewBox="0 0 24 24" xmlns="http://www.w3.org/2000/svg" fill="currentColor"> <g clip-path="url(#clip0_2077_3152)"> <path d="M22.875 9.74992H20.5509L16.4831 4.14742C16.3147 3.91606 16.0955 3.72633 15.8425 3.59276C15.5894 3.45918 15.3091 3.38531 15.023 3.37681C14.737 3.3683 14.4528 3.42538 14.1922 3.54368C13.9316 3.66198 13.7016 3.83836 13.5197 4.0593L12.3178 5.45242C12.3084 5.46273 12.2991 5.47398 12.2906 5.48523C12.2555 5.52836 12.2111 5.56312 12.1609 5.58699C12.1106 5.61086 12.0556 5.62325 12 5.62325C11.9444 5.62325 11.8894 5.61086 11.8391 5.58699C11.7889 5.56312 11.7445 5.52836 11.7094 5.48523C11.7009 5.47398 11.6916 5.46273 11.6822 5.45242L10.4803 4.0593C10.2984 3.83836 10.0684 3.66198 9.80781 3.54368C9.54723 3.42538 9.26304 3.3683 8.97699 3.37681C8.69094 3.38531 8.41064 3.45918 8.15755 3.59276C7.90446 3.72633 7.68531 3.91606 7.51688 4.14742L3.44906 9.74992H1.125C0.826631 9.74992 0.540483 9.86845 0.329505 10.0794C0.118526 10.2904 0 10.5766 0 10.8749C0 11.1733 0.118526 11.4594 0.329505 11.6704C0.540483 11.8814 0.826631 11.9999 1.125 11.9999H22.875C23.1734 11.9999 23.4595 11.8814 23.6705 11.6704C23.8815 11.4594 24 11.1733 24 10.8749C24 10.5766 23.8815 10.2904 23.6705 10.0794C23.4595 9.86845 23.1734 9.74992 22.875 9.74992ZM9.05813 5.85461L9.96656 6.90836C10.2127 7.20991 10.5229 7.45294 10.8746 7.61983C11.2263 7.78673 11.6107 7.87331 12 7.87331C12.3893 7.87331 12.7737 7.78673 13.1254 7.61983C13.4771 7.45294 13.7873 7.20991 14.0334 6.90836L14.9419 5.85461L17.7703 9.74992H6.22969L9.05813 5.85461ZM16.875 13.1249C16.0772 13.1259 15.3005 13.3808 14.6573 13.8528C14.0141 14.3247 13.5378 14.9892 13.2975 15.7499H10.7025C10.4337 14.8952 9.86782 14.1651 9.10725 13.6915C8.34668 13.218 7.4417 13.0324 6.55614 13.1684C5.67057 13.3043 4.86295 13.7528 4.27948 14.4327C3.696 15.1126 3.37523 15.979 3.37523 16.8749C3.37523 17.7709 3.696 18.6372 4.27948 19.3171C4.86295 19.997 5.67057 20.4455 6.55614 20.5815C7.4417 20.7175 8.34668 20.5319 9.10725 20.0583C9.86782 19.5848 10.4337 18.8546 10.7025 17.9999H13.2975C13.5054 18.6611 13.8925 19.2517 14.4158 19.7062C14.9391 20.1606 15.578 20.4612 16.2618 20.5745C16.9456 20.6878 17.6473 20.6094 18.2892 20.3479C18.9311 20.0865 19.488 19.6523 19.8981 19.0935C20.3081 18.5348 20.5553 17.8733 20.6121 17.1826C20.669 16.4918 20.5333 15.7988 20.2201 15.1805C19.907 14.5622 19.4286 14.0428 18.8381 13.6799C18.2476 13.3171 17.5681 13.125 16.875 13.1249ZM7.125 18.3749C6.82833 18.3749 6.53832 18.2869 6.29165 18.1221C6.04497 17.9573 5.85271 17.723 5.73918 17.4489C5.62565 17.1749 5.59594 16.8733 5.65382 16.5823C5.7117 16.2913 5.85456 16.024 6.06434 15.8143C6.27412 15.6045 6.54139 15.4616 6.83236 15.4037C7.12334 15.3459 7.42494 15.3756 7.69903 15.4891C7.97311 15.6026 8.20738 15.7949 8.3722 16.0416C8.53703 16.2882 8.625 16.5782 8.625 16.8749C8.625 17.2727 8.46696 17.6543 8.18566 17.9356C7.90436 18.2169 7.52282 18.3749 7.125 18.3749ZM16.875 18.3749C16.5783 18.3749 16.2883 18.2869 16.0416 18.1221C15.795 17.9573 15.6027 17.723 15.4892 17.4489C15.3756 17.1749 15.3459 16.8733 15.4038 16.5823C15.4617 16.2913 15.6046 16.024 15.8143 15.8143C16.0241 15.6045 16.2914 15.4616 16.5824 15.4037C16.8733 15.3459 17.1749 15.3756 17.449 15.4891C17.7231 15.6026 17.9574 15.7949 18.1222 16.0416C18.287 16.2882 18.375 16.5782 18.375 16.8749C18.375 17.2727 18.217 17.6543 17.9357 17.9356C17.6544 18.2169 17.2728 18.3749 16.875 18.3749Z"/> </g> <defs> <clipPath id="clip0_2077_3152"> <rect width="24" height="24"/> </clipPath> </defs> </svg>

<svg viewBox="0 0 24 24" xmlns="http://www.w3.org/2000/svg" aria-hidden="true" fill="currentColor"><g clip-path="url(#a)"><path d="M22.875 9.75h-2.324l-4.068-5.603a1.875 1.875 0 0 0-2.963-.088l-1.202 1.393-.027.033a.375.375 0 0 1-.582 0l-.027-.033L10.48 4.06a1.875 1.875 0 0 0-2.963.088L3.449 9.75H1.125a1.125 1.125 0 0 0 0 2.25h21.75a1.125 1.125 0 1 0 0-2.25M9.058 5.855l.909 1.053a2.625 2.625 0 0 0 4.066 0l.909-1.053L17.77 9.75H6.23zm7.817 7.27a3.76 3.76 0 0 0-3.578 2.625h-2.594a3.75 3.75 0 1 0 0 2.25h2.595a3.75 3.75 0 1 0 3.577-4.875m-9.75 5.25a1.5 1.5 0 1 1 0-3 1.5 1.5 0 0 1 0 3m9.75 0a1.5 1.5 0 1 1 0-3 1.5 1.5 0 0 1 0 3"/></g><defs><clipPath id="a"><path d="M0 0h24v24H0z"/></clipPath></defs></svg>
